X:1542
T:Jug of Punch, The
R:reel
N:"collected from Carey"
B:"O'Neill's Dance Music of Ireland, 1542"
T: curisgin an di.ge.
Z:transcribed by John B. Walsh, walsh@math.ubc.ca 8/23/96
M:C|
L:1/8
K:DDor
A,DDC DEFG|ABGB ABGA|EA,A,B, CDEF|G2 (AG) FDEC|
A,DDE (FD)(DE)|F2 (ED) CD E2|d2 (ed) cAGE|FDEC D2 D2||
Adde f2(fe)|e2 (ed) cAAB|AGAB cBcd|eaag (ed) d2|
Adde f2(fd)|e2 (ed) cAAB|=c2 (BA) GEAG|FDEC D2 D2||


